X:2
T:Stage Coach, The
M:6/8
L:1/8
B:Thompson's Compleat Collection of 200 Favourite Country Dances, vol. 2 (London, 1765)
Z:Transcribed and edited by Flynn Titford-Mock, 2007
Z:abc's:AK/Fiddler's Companion
K:A
E | A2c B2d | c2e Bcd | A2c B2d | cBA BAG | A2c B2d | c2e Bcd | efg agf | ef^d e2 :|
|: e | c2e d2f | B2d cBA | f2a gfe | F2A GFE | F2A G2B | A2c Bcd | efg aec | BAG A2 :|

